svgs/regular/grip-lines.svg

<svg xmlns="http://www.w3.org/2000/svg" viewBox="0 0 448 512"><!--! Font Awesome Pro 6.3.0 by @fontawesome - https://fontawesome.com License - https://fontawesome.com/license (Commercial License) Copyright 2023 Fonticons, Inc. --><path d="M448 192c0-13.3-10.7-24-24-24L24 168c-13.3 0-24 10.7-24 24s10.7 24 24 24l400 0c13.3 0 24-10.7 24-24zm0 128c0-13.3-10.7-24-24-24L24 296c-13.3 0-24 10.7-24 24s10.7 24 24 24l400 0c13.3 0 24-10.7 24-24z"/></svg>

<svg xmlns="http://www.w3.org/2000/svg" viewBox="0 0 448 512"><!-- Font Awesome Pro 6.0.0-alpha2 by @fontawesome - https://fontawesome.com License - https://fontawesome.com/license (Commercial License) --><path d="M424 168H24C10.8 168 0 178.8 0 192V192C0 205.2 10.8 216 24 216H424C437.2 216 448 205.2 448 192V192C448 178.8 437.2 168 424 168ZM424 296H24C10.8 296 0 306.8 0 320V320C0 333.2 10.8 344 24 344H424C437.2 344 448 333.2 448 320V320C448 306.8 437.2 296 424 296Z"/></svg>
